dist/svg/icon-ui-sun.svg

<svg xmlns="http://www.w3.org/2000/svg" viewBox="0 0 24 24" fill="none" stroke="currentColor" stroke-width="2" stroke-linecap="round" stroke-linejoin="round" class="feather feather-sun"><circle cx="12" cy="12" r="5"/><path d="M12 1v2M12 21v2M4.22 4.22l1.42 1.42M18.36 18.36l1.42 1.42M1 12h2M21 12h2M4.22 19.78l1.42-1.42M18.36 5.64l1.42-1.42"/></svg>

<svg xmlns="http://www.w3.org/2000/svg" viewBox="0 0 24 24" fill="none" stroke="currentColor" stroke-width="2" stroke-linecap="round" stroke-linejoin="round" class="feather feather-sun"><circle cx="12" cy="12" r="5"/><path d="M12 1L12 3M12 21L12 23M4.22 4.22L5.64 5.64M18.36 18.36L19.78 19.78M1 12L3 12M21 12L23 12M4.22 19.78L5.64 18.36M18.36 5.64L19.78 4.22"/></svg>
